synths/sBTC.svg

<svg width="42" height="42" viewBox="0 0 42 42" fill="none" xmlns="http://www.w3.org/2000/svg">
<g clip-path="url(#clip0_7277_57955)">
<mask id="mask0_7277_57955" style="mask-type:alpha" maskUnits="userSpaceOnUse" x="0" y="0" width="42" height="42">
<circle cx="21" cy="21" r="21" transform="matrix(-1 0 0 1 42 0)" fill="url(#paint0_linear_7277_57955)"/>
</mask>
<g mask="url(#mask0_7277_57955)">
<circle cx="21" cy="21" r="21" transform="matrix(-1 0 0 1 42 0)" fill="#34EDB3"/>
<circle cx="18.2" cy="18.2" r="18.2" transform="matrix(-1 0 0 1 39.2 2.80005)" fill="white"/>
</g>
<circle cx="16.1" cy="16.1" r="16.1" transform="matrix(-1 0 0 1 37.1 4.90002)" fill="#0B0B22"/>
<g clip-path="url(#clip1_7277_57955)">
<path d="M21 37.1C29.8918 37.1 37.1 29.8918 37.1 21C37.1 12.1082 29.8918 4.90002 21 4.90002C12.1082 4.90002 4.90002 12.1082 4.90002 21C4.90002 29.8918 12.1082 37.1 21 37.1Z" fill="#F7931A"/>
<path d="M28.2342 19.0076C28.5501 16.8985 26.9431 15.7645 24.7475 15.0078L25.4599 12.15L23.7211 11.7173L23.0268 14.4996C22.57 14.3849 22.1011 14.2782 21.6332 14.1716L22.3325 11.3712L20.5937 10.9375L19.8813 13.7942C19.5029 13.7077 19.1306 13.6232 18.7704 13.5326L18.7724 13.5236L16.3735 12.9248L15.9106 14.7824C15.9106 14.7824 17.2016 15.0782 17.1745 15.0963C17.8788 15.2724 18.0056 15.7383 17.9845 16.1086L17.1735 19.3638C17.2218 19.3759 17.2842 19.394 17.3546 19.4212L17.1704 19.3759L16.0334 23.9362C15.9468 24.1496 15.7285 24.4706 15.2354 24.3488C15.2535 24.374 13.9716 24.0338 13.9716 24.0338L13.1082 26.0242L15.3723 26.5887C15.7929 26.6944 16.2055 26.8051 16.611 26.9087L15.8915 29.7986L17.6293 30.2313L18.3417 27.3736C18.8167 27.5014 19.2775 27.6201 19.7283 27.7328L19.0179 30.5785L20.7567 31.0112L21.4762 28.1273C24.4426 28.6888 26.6725 28.4623 27.6113 25.7797C28.368 23.6203 27.5741 22.3735 26.0134 21.5615C27.1504 21.2999 28.0057 20.5522 28.2342 19.0076V19.0076ZM24.2595 24.5802C23.7231 26.7407 20.0856 25.5724 18.9062 25.2796L19.8622 21.4508C21.0415 21.7456 24.822 22.3282 24.2595 24.5802ZM24.7978 18.9764C24.3078 20.9416 21.281 19.9424 20.2999 19.6979L21.1653 16.2263C22.1464 16.4709 25.309 16.9267 24.7978 18.9764Z" fill="white"/>
</g>
</g>
<defs>
<linearGradient id="paint0_linear_7277_57955" x1="21" y1="0" x2="21" y2="61.4091" gradientUnits="userSpaceOnUse">
<stop stop-color="#08021E"/>
<stop offset="1" stop-color="#1F0777"/>
</linearGradient>
<clipPath id="clip0_7277_57955">
<rect width="42" height="42" fill="white"/>
</clipPath>
<clipPath id="clip1_7277_57955">
<rect width="32.2" height="32.2" fill="white" transform="translate(4.90002 4.90002)"/>
</clipPath>
</defs>
</svg>

<svg xmlns="http://www.w3.org/2000/svg" width="42" height="42" fill="none"><g clip-path="url(#a)"><mask id="c" width="42" height="42" x="0" y="0" maskUnits="userSpaceOnUse" style="mask-type:alpha"><circle cx="21" cy="21" r="21" fill="url(#b)" transform="matrix(-1 0 0 1 42 0)"/></mask><g mask="url(#c)"><circle cx="21" cy="21" r="21" fill="#34EDB3" transform="matrix(-1 0 0 1 42 0)"/><circle cx="18.2" cy="18.2" r="18.2" fill="#fff" transform="matrix(-1 0 0 1 39.2 2.8)"/></g><circle cx="16.1" cy="16.1" r="16.1" fill="#0B0B22" transform="matrix(-1 0 0 1 37.1 4.9)"/><g clip-path="url(#d)"><path fill="#F7931A" d="M21 37.1c8.892 0 16.1-7.208 16.1-16.1 0-8.892-7.208-16.1-16.1-16.1-8.892 0-16.1 7.208-16.1 16.1 0 8.892 7.208 16.1 16.1 16.1Z"/><path fill="#fff" d="M28.234 19.008c.316-2.11-1.29-3.243-3.487-4l.713-2.858-1.739-.433-.694 2.783c-.457-.115-.926-.222-1.394-.328l.7-2.8-1.74-.434-.712 2.856c-.378-.086-.75-.17-1.11-.261l.001-.01-2.398-.598-.463 1.857s1.29.296 1.263.314c.705.176.832.642.81 1.013l-.81 3.255c.048.012.11.03.18.057l-.184-.045-1.137 4.56c-.086.214-.305.535-.798.413.019.025-1.263-.315-1.263-.315l-.864 1.99 2.264.565c.42.105.834.216 1.239.32l-.72 2.89 1.738.432.713-2.857c.475.127.936.246 1.386.359l-.71 2.845 1.739.433.72-2.884c2.966.562 5.195.335 6.134-2.347.757-2.16-.037-3.407-1.598-4.219 1.137-.261 1.993-1.009 2.221-2.553ZM24.26 24.58c-.536 2.16-4.173.992-5.353.7l.956-3.83c1.18.296 4.96.878 4.398 3.13Zm.539-5.604c-.49 1.966-3.517.966-4.498.722l.865-3.472c.981.245 4.144.7 3.633 2.75Z"/></g></g><defs><clipPath id="a"><path fill="#fff" d="M0 0h42v42H0z"/></clipPath><clipPath id="d"><path fill="#fff" d="M4.9 4.9h32.2v32.2H4.9z"/></clipPath><linearGradient id="b" x1="21" x2="21" y1="0" y2="61.409" gradientUnits="userSpaceOnUse"><stop stop-color="#08021E"/><stop offset="1" stop-color="#1F0777"/></linearGradient></defs></svg>
